symbols/web/directions_bus/materialsymbolsoutlined/directions_bus_gradN25_48px.svg

<svg xmlns="http://www.w3.org/2000/svg" height="48" width="48"><path d="M12.65 41.75q-.65 0-1.125-.325t-.475-.925v-4.15Q9.6 35.6 8.925 34.1t-.675-3.25V11.2q0-3.65 3.725-5.3T24.05 4.25q8.2 0 11.975 1.675Q39.8 7.6 39.8 11.2v19.65q0 1.75-.7 3.25t-2.15 2.25v4.15q0 .55-.475.9t-1.125.35h-.85q-.7 0-1.175-.325-.475-.325-.475-.925v-2.8h-17.7v2.8q0 .6-.475.925-.475.325-1.175.325Zm11.4-31.8h12.9-25.9 13Zm8.8 14.5H11.1h25.8-4.05ZM11.1 21.6h25.8v-8.75H11.1Zm5.25 10.7q1.15 0 1.925-.775.775-.775.775-1.875 0-1.15-.775-1.95t-1.925-.8q-1.1 0-1.9.8-.8.8-.8 1.9 0 1.15.775 1.925.775.775 1.925.775Zm15.3 0q1.15 0 1.925-.775.775-.775.775-1.875 0-1.15-.775-1.95t-1.925-.8q-1.1 0-1.9.8-.8.8-.8 1.9 0 1.15.775 1.925.775.775 1.925.775ZM11.05 9.95h25.9Q35.7 8.65 32.3 7.9q-3.4-.75-8.25-.75-5.85 0-9.025.675Q11.85 8.5 11.05 9.95Zm4.1 24.9h17.7q1.75 0 2.9-1.35t1.15-3.05v-6H11.1v5.95q0 1.75 1.175 3.1t2.875 1.35Z"/></svg>

<svg xmlns="http://www.w3.org/2000/svg" height="48" width="48"><path d="M12.65 41.75Q12 41.75 11.525 41.425Q11.05 41.1 11.05 40.5V36.35Q9.6 35.6 8.925 34.1Q8.25 32.6 8.25 30.85V11.2Q8.25 7.55 11.975 5.9Q15.7 4.25 24.05 4.25Q32.25 4.25 36.025 5.925Q39.8 7.6 39.8 11.2V30.85Q39.8 32.6 39.1 34.1Q38.4 35.6 36.95 36.35V40.5Q36.95 41.05 36.475 41.4Q36 41.75 35.35 41.75H34.5Q33.8 41.75 33.325 41.425Q32.85 41.1 32.85 40.5V37.7H15.15V40.5Q15.15 41.1 14.675 41.425Q14.2 41.75 13.5 41.75ZM24.05 9.95Q28.9 9.95 32.3 9.95Q35.7 9.95 36.95 9.95H11.05Q11.85 9.95 15.025 9.95Q18.2 9.95 24.05 9.95ZM32.85 24.45H15.15Q13.45 24.45 12.275 24.45Q11.1 24.45 11.1 24.45H36.9Q36.9 24.45 35.75 24.45Q34.6 24.45 32.85 24.45ZM11.1 21.6H36.9V12.85H11.1ZM16.35 32.3Q17.5 32.3 18.275 31.525Q19.05 30.75 19.05 29.65Q19.05 28.5 18.275 27.7Q17.5 26.9 16.35 26.9Q15.25 26.9 14.45 27.7Q13.65 28.5 13.65 29.6Q13.65 30.75 14.425 31.525Q15.2 32.3 16.35 32.3ZM31.65 32.3Q32.8 32.3 33.575 31.525Q34.35 30.75 34.35 29.65Q34.35 28.5 33.575 27.7Q32.8 26.9 31.65 26.9Q30.55 26.9 29.75 27.7Q28.95 28.5 28.95 29.6Q28.95 30.75 29.725 31.525Q30.5 32.3 31.65 32.3ZM11.05 9.95H36.95Q35.7 8.65 32.3 7.9Q28.9 7.15 24.05 7.15Q18.2 7.15 15.025 7.825Q11.85 8.5 11.05 9.95ZM15.15 34.85H32.85Q34.6 34.85 35.75 33.5Q36.9 32.15 36.9 30.45V24.45H11.1V30.4Q11.1 32.15 12.275 33.5Q13.45 34.85 15.15 34.85Z"/></svg>
